the-plus-addons-for-block-editor/assets/images/preloader/progress-4.svg

<svg xmlns="http://www.w3.org/2000/svg" width="1000" height="700" fill="none" viewBox="0 0 1000 700"><path fill="#FCFCFF" d="M0 0h1000v700H0z"/><path fill="#D5D5D5" d="M222 350h556v8H222z"/><path fill="#888" d="M388 350h225v8H388zM482.55 389.915h-11.725v6.965c.49-.653 1.213-1.202 2.17-1.645a7.475 7.475 0 0 1 3.115-.665c1.96 0 3.547.42 4.76 1.26 1.237.84 2.112 1.902 2.625 3.185.537 1.283.805 2.637.805 4.06 0 1.727-.338 3.267-1.015 4.62-.653 1.33-1.645 2.38-2.975 3.15-1.307.77-2.917 1.155-4.83 1.155-2.543 0-4.585-.63-6.125-1.89-1.54-1.26-2.462-2.928-2.765-5.005h3.885c.257 1.097.828 1.972 1.715 2.625.887.63 1.995.945 3.325.945 1.657 0 2.893-.502 3.71-1.505.84-1.003 1.26-2.333 1.26-3.99 0-1.68-.42-2.963-1.26-3.85-.84-.91-2.077-1.365-3.71-1.365-1.143 0-2.112.292-2.905.875-.77.56-1.33 1.33-1.68 2.31h-3.78v-14.735h15.4v3.5Zm5.904 8.995c0-4.037.676-7.187 2.03-9.45 1.376-2.287 3.733-3.43 7.07-3.43 3.336 0 5.681 1.143 7.035 3.43 1.376 2.263 2.065 5.413 2.065 9.45 0 4.083-.689 7.28-2.065 9.59-1.354 2.287-3.699 3.43-7.035 3.43-3.337 0-5.694-1.143-7.07-3.43-1.354-2.31-2.03-5.507-2.03-9.59Zm14.28 0c0-1.89-.129-3.488-.385-4.795-.234-1.307-.724-2.368-1.47-3.185-.747-.84-1.855-1.26-3.325-1.26-1.47 0-2.579.42-3.325 1.26-.747.817-1.249 1.878-1.505 3.185-.234 1.307-.35 2.905-.35 4.795 0 1.96.116 3.605.35 4.935.233 1.33.723 2.403 1.47 3.22.77.817 1.89 1.225 3.36 1.225s2.578-.408 3.325-1.225c.77-.817 1.271-1.89 1.505-3.22.233-1.33.35-2.975.35-4.935Zm7.511-6.265c0-1.703.49-3.033 1.47-3.99 1.004-.98 2.287-1.47 3.85-1.47 1.564 0 2.835.49 3.815 1.47 1.004.957 1.505 2.287 1.505 3.99 0 1.703-.501 3.045-1.505 4.025-.98.98-2.251 1.47-3.815 1.47-1.563 0-2.846-.49-3.85-1.47-.98-.98-1.47-2.322-1.47-4.025Zm21.35-5.005L517.63 412h-3.92l13.965-24.36h3.92Zm-16.03 1.96c-1.47 0-2.205 1.015-2.205 3.045 0 2.053.735 3.08 2.205 3.08.7 0 1.237-.245 1.61-.735.397-.513.595-1.295.595-2.345 0-2.03-.735-3.045-2.205-3.045Zm8.925 17.36c0-1.703.49-3.033 1.47-3.99 1.004-.98 2.287-1.47 3.85-1.47 1.54 0 2.8.49 3.78 1.47 1.004.957 1.505 2.287 1.505 3.99 0 1.703-.501 3.045-1.505 4.025-.98.98-2.24 1.47-3.78 1.47-1.563 0-2.846-.49-3.85-1.47-.98-.98-1.47-2.322-1.47-4.025Zm5.285-3.045c-1.47 0-2.205 1.015-2.205 3.045 0 2.03.735 3.045 2.205 3.045 1.47 0 2.205-1.015 2.205-3.045 0-2.03-.735-3.045-2.205-3.045Z"/></svg>

<svg width="1000" height="700" viewBox="0 0 1000 700" fill="none" xmlns="http://www.w3.org/2000/svg">
<rect width="1000" height="700" fill="#FCFCFF"/>
<rect x="222" y="350" width="556" height="8" fill="#D5D5D5"/>
<rect x="388" y="350" width="225" height="8" fill="#888888"/>
<path d="M482.55 389.915H470.825V396.88C471.315 396.227 472.038 395.678 472.995 395.235C473.975 394.792 475.013 394.57 476.11 394.57C478.07 394.57 479.657 394.99 480.87 395.83C482.107 396.67 482.982 397.732 483.495 399.015C484.032 400.298 484.3 401.652 484.3 403.075C484.3 404.802 483.962 406.342 483.285 407.695C482.632 409.025 481.64 410.075 480.31 410.845C479.003 411.615 477.393 412 475.48 412C472.937 412 470.895 411.37 469.355 410.11C467.815 408.85 466.893 407.182 466.59 405.105H470.475C470.732 406.202 471.303 407.077 472.19 407.73C473.077 408.36 474.185 408.675 475.515 408.675C477.172 408.675 478.408 408.173 479.225 407.17C480.065 406.167 480.485 404.837 480.485 403.18C480.485 401.5 480.065 400.217 479.225 399.33C478.385 398.42 477.148 397.965 475.515 397.965C474.372 397.965 473.403 398.257 472.61 398.84C471.84 399.4 471.28 400.17 470.93 401.15H467.15V386.415H482.55V389.915ZM488.454 398.91C488.454 394.873 489.13 391.723 490.484 389.46C491.86 387.173 494.217 386.03 497.554 386.03C500.89 386.03 503.235 387.173 504.589 389.46C505.965 391.723 506.654 394.873 506.654 398.91C506.654 402.993 505.965 406.19 504.589 408.5C503.235 410.787 500.89 411.93 497.554 411.93C494.217 411.93 491.86 410.787 490.484 408.5C489.13 406.19 488.454 402.993 488.454 398.91ZM502.734 398.91C502.734 397.02 502.605 395.422 502.349 394.115C502.115 392.808 501.625 391.747 500.879 390.93C500.132 390.09 499.024 389.67 497.554 389.67C496.084 389.67 494.975 390.09 494.229 390.93C493.482 391.747 492.98 392.808 492.724 394.115C492.49 395.422 492.374 397.02 492.374 398.91C492.374 400.87 492.49 402.515 492.724 403.845C492.957 405.175 493.447 406.248 494.194 407.065C494.964 407.882 496.084 408.29 497.554 408.29C499.024 408.29 500.132 407.882 500.879 407.065C501.649 406.248 502.15 405.175 502.384 403.845C502.617 402.515 502.734 400.87 502.734 398.91ZM510.245 392.645C510.245 390.942 510.735 389.612 511.715 388.655C512.719 387.675 514.002 387.185 515.565 387.185C517.129 387.185 518.4 387.675 519.38 388.655C520.384 389.612 520.885 390.942 520.885 392.645C520.885 394.348 520.384 395.69 519.38 396.67C518.4 397.65 517.129 398.14 515.565 398.14C514.002 398.14 512.719 397.65 511.715 396.67C510.735 395.69 510.245 394.348 510.245 392.645ZM531.595 387.64L517.63 412H513.71L527.675 387.64H531.595ZM515.565 389.6C514.095 389.6 513.36 390.615 513.36 392.645C513.36 394.698 514.095 395.725 515.565 395.725C516.265 395.725 516.802 395.48 517.175 394.99C517.572 394.477 517.77 393.695 517.77 392.645C517.77 390.615 517.035 389.6 515.565 389.6ZM524.49 406.96C524.49 405.257 524.98 403.927 525.96 402.97C526.964 401.99 528.247 401.5 529.81 401.5C531.35 401.5 532.61 401.99 533.59 402.97C534.594 403.927 535.095 405.257 535.095 406.96C535.095 408.663 534.594 410.005 533.59 410.985C532.61 411.965 531.35 412.455 529.81 412.455C528.247 412.455 526.964 411.965 525.96 410.985C524.98 410.005 524.49 408.663 524.49 406.96ZM529.775 403.915C528.305 403.915 527.57 404.93 527.57 406.96C527.57 408.99 528.305 410.005 529.775 410.005C531.245 410.005 531.98 408.99 531.98 406.96C531.98 404.93 531.245 403.915 529.775 403.915Z" fill="#888888"/>
</svg>
